X: 2036
Q: "Reel."
M: C
L: 1/8
K: A
[1 A,CCE cAAe | cAEC B,3 :|\
[2 A,CCE cAeA | cAEC B,3 :|
|: f |\
ecaf eccb | agaf eccf |\
[1 ecaf eccb | agac B3 :|\
[2 cABc AcBc | AFEC B,3 |]


